client/public/img/game/shared/weapons/smoke_grenade.svg

<?xml version="1.0" encoding="UTF-8" standalone="no"?>
<svg
   width="62"
   height="72"
   viewBox="0 0 62 72"
   fill="none"
   version="1.1"
   id="svg7"
   xmlns="http://www.w3.org/2000/svg"
   xmlns:svg="http://www.w3.org/2000/svg">
  <defs
     id="defs7" />
  <path
     d="M55.2659 17.1682C55.0251 17.5853 54.9598 18.0809 55.0843 18.546C55.2088 19.0111 55.513 19.4076 55.9298 19.6483C56.1363 19.7675 56.3641 19.8448 56.6004 19.8758C56.8368 19.9069 57.0769 19.8912 57.3072 19.8294C57.5375 19.7677 57.7533 19.6612 57.9425 19.516C58.1316 19.3708 58.2904 19.1898 58.4096 18.9832C58.5288 18.7767 58.6062 18.5488 58.6374 18.3124C58.6686 18.076 58.6529 17.8358 58.5912 17.6055C58.5296 17.3752 58.4231 17.1593 58.278 16.9702C58.133 16.781 57.9521 16.6224 57.7457 16.5032C57.3288 16.2625 56.8333 16.1973 56.3683 16.3221C55.9033 16.4468 55.5067 16.7512 55.2659 17.1682Z"
     fill="#373225"
     stroke="#1B1913"
     stroke-width="4"
     stroke-miterlimit="3.99393"
     id="path1" />
  <path
     d="M51.4456 34.366C51.7217 33.8877 51.5578 33.2761 51.0796 33L32.2942 22.1543C31.816 21.8782 31.2044 22.042 30.9282 22.5203L10.7375 57.4916C10.4614 57.9699 10.6253 58.5815 11.1036 58.8576L29.8889 69.7033C30.3672 69.9795 30.9788 69.8156 31.2549 69.3373L51.4456 34.366Z"
     fill="#47572B"
     id="path2" />
  <path
     d="M53.3793 14.9502L53.8403 16.3458L56.8216 18.067L49.7965 21.1558L48.1011 26.2864L45.939 30.0312L37.4852 25.1504L39.6472 21.4056L33.5906 17.9088L43.6574 9.33725L53.3793 14.9502Z"
     fill="#4E4735"
     stroke="#1B1913"
     stroke-width="4"
     stroke-miterlimit="3.99393"
     stroke-linecap="square"
     id="path3" />
  <path
     d="M38.7327 56.3848L18.2153 44.5391L14.9853 50.1336L35.5027 61.9793L38.7327 56.3848Z"
     fill="#9CA38F"
     id="path4" />
  <path
     d="M37.8225 14.3058L23.8935 12.4581L13.0321 31.2706L16.6864 35.6407L27.3768 17.1244L33.5899 17.9096L37.8225 14.3058Z"
     fill="#4E4735"
     stroke="#1B1913"
     stroke-width="4"
     stroke-miterlimit="3.99393"
     id="path5" />
  <path
     d="M51.4456 34.366C51.7217 33.8877 51.5578 33.2761 51.0796 33L32.2942 22.1543C31.816 21.8782 31.2044 22.042 30.9282 22.5203L10.7375 57.4916C10.4614 57.9699 10.6253 58.5815 11.1036 58.8576L29.8889 69.7033C30.3672 69.9795 30.9788 69.8156 31.2549 69.3373L51.4456 34.366Z"
     stroke="#191F0F"
     stroke-width="4"
     stroke-miterlimit="3.99393"
     id="path6" />
  <path
     fill-rule="evenodd"
     clip-rule="evenodd"
     d="M31.4961 30.4374C36.2859 33.2028 42.4103 31.5629 45.1759 26.7727C47.9415 21.9825 46.3005 15.8569 41.5108 13.0916C36.7206 10.3259 30.5952 11.9676 27.8296 16.7578C25.064 21.548 26.7059 27.6718 31.4961 30.4374ZM33.2354 27.425C36.3608 29.2294 40.3575 28.1585 42.1621 25.0327C43.9668 21.9069 42.8959 17.9102 39.7705 16.1057C36.6447 14.301 32.648 15.372 30.8433 18.4978C29.0387 21.6236 30.1096 25.6203 33.2354 27.425Z"
     fill="#A0A599"
     stroke="#21231F"
     stroke-width="2"
     stroke-miterlimit="3.99393"
     id="path7" />
</svg>

<svg xmlns="http://www.w3.org/2000/svg" width="62" height="72" fill="none"><path fill="#373225" stroke="#1B1913" stroke-miterlimit="3.994" stroke-width="4" d="M55.266 17.168a1.816 1.816 0 0 0 2.677 2.348 1.816 1.816 0 1 0-2.677-2.348Z"/><path fill="#47572B" d="M51.446 34.366A1 1 0 0 0 51.08 33L32.294 22.154a1 1 0 0 0-1.366.366l-20.19 34.972a1 1 0 0 0 .366 1.366l18.785 10.845a1 1 0 0 0 1.366-.366z"/><path fill="#4E4735" stroke="#1B1913" stroke-linecap="square" stroke-miterlimit="3.994" stroke-width="4" d="m53.38 14.95.46 1.396 2.982 1.721-7.026 3.089-1.695 5.13-2.162 3.745-8.454-4.88 2.162-3.745-6.056-3.497 10.066-8.572z"/><path fill="#9CA38F" d="M38.733 56.385 18.215 44.539l-3.23 5.595 20.518 11.845z"/><path fill="#4E4735" stroke="#1B1913" stroke-miterlimit="3.994" stroke-width="4" d="m37.823 14.306-13.93-1.848-10.86 18.813 3.653 4.37 10.69-18.517 6.214.786z"/><path stroke="#191F0F" stroke-miterlimit="3.994" stroke-width="4" d="M51.446 34.366A1 1 0 0 0 51.08 33L32.294 22.154a1 1 0 0 0-1.366.366l-20.19 34.972a1 1 0 0 0 .366 1.366l18.785 10.845a1 1 0 0 0 1.366-.366z"/><path fill="#A0A599" fill-rule="evenodd" stroke="#21231F" stroke-miterlimit="3.994" stroke-width="2" d="M31.496 30.437c4.79 2.766 10.914 1.126 13.68-3.664S46.3 15.857 41.51 13.092c-4.79-2.766-10.916-1.124-13.681 3.666-2.766 4.79-1.124 10.914 3.666 13.68Zm1.74-3.012a6.535 6.535 0 1 0 6.534-11.319 6.535 6.535 0 0 0-6.535 11.319Z" clip-rule="evenodd"/></svg>
